icon_installer/data/icons/scalable/actions/show-cut-symbolic.svg

<?xml version="1.0" encoding="UTF-8"?>
<svg height="16px" viewBox="0 0 16 16" width="16px" xmlns="http://www.w3.org/2000/svg">
    <g fill="#222222">
        <path d="m 14 1 l -5.207031 4.972656 l 1.566406 1.527344 l 5.640625 -5.5 v -1 z m -6.804688 6.5 l -2.976562 2.84375 l 1.6875 1.5 l 2.886719 -2.816406 z m 0 0"/>
        <path d="m 4.21875 5.65625 l 9.78125 9.34375 h 2 v -1 l -10.09375 -9.84375 z m 0 0"/>
        <path d="m 5.972656 1.019531 c -1.359375 -1.359375 -3.59375 -1.359375 -4.953125 0 c -1.359375 1.359375 -1.359375 3.59375 0 4.953125 s 3.59375 1.359375 4.953125 0 s 1.359375 -3.59375 0 -4.953125 z m -1.414062 1.414063 c 0.597656 0.59375 0.597656 1.53125 0 2.125 c -0.59375 0.597656 -1.527344 0.59375 -2.125 0 c -0.59375 -0.59375 -0.59375 -1.527344 0 -2.125 c 0.597656 -0.59375 1.53125 -0.59375 2.125 0 z m 0 0"/>
        <path d="m 5.972656 10.019531 c -1.359375 -1.359375 -3.59375 -1.359375 -4.953125 0 c -1.359375 1.359375 -1.359375 3.597657 0 4.957031 c 1.359375 1.359376 3.59375 1.355469 4.953125 -0.003906 s 1.359375 -3.589844 0 -4.949218 z m -1.414062 1.414063 c 0.597656 0.597656 0.597656 1.53125 0 2.125 c -0.59375 0.597656 -1.527344 0.597656 -2.125 0 c -0.59375 -0.59375 -0.59375 -1.53125 0 -2.125 c 0.597656 -0.59375 1.53125 -0.59375 2.125 0 z m 0 0"/>
    </g>
</svg>

<svg xmlns="http://www.w3.org/2000/svg" width="16" height="16"><g fill="#222"><path d="M14 1 8.793 5.973 10.359 7.5 16 2V1zM7.195 7.5 4.22 10.344l1.687 1.5 2.887-2.817zm0 0"/><path d="M4.219 5.656 14 15h2v-1L5.906 4.156zm0 0"/><path d="M5.973 1.02a3.518 3.518 0 0 0-4.953 0c-1.36 1.359-1.36 3.593 0 4.953s3.593 1.359 4.953 0 1.359-3.594 0-4.953zM4.559 2.434a1.483 1.483 0 0 1 0 2.125 1.487 1.487 0 0 1-2.125 0 1.49 1.49 0 0 1 0-2.125 1.49 1.49 0 0 1 2.125 0zm1.414 7.586a3.518 3.518 0 0 0-4.953 0 3.522 3.522 0 0 0 0 4.957c1.359 1.359 3.593 1.355 4.953-.004s1.359-3.59 0-4.95zm-1.414 1.414a1.483 1.483 0 0 1 0 2.125 1.483 1.483 0 0 1-2.125 0 1.49 1.49 0 0 1 0-2.125 1.49 1.49 0 0 1 2.125 0zm0 0"/></g></svg>
